X:423
T:Bending the Ferret
C:Doug Eunson
K:G
M:6/8
L:1/8
G2 B ABA | GBd g2 d | edc BAG | A2 c cBA | 
G2 B ABA | GBd g2 d | edc BAG | A2 F G3 :|| 
e2 e dcB | ABc dcd | e2 e dcB | ABc def | 
g2 d BAG | ABc ABc | B2 B cAF | G6 :|| 

